X:315
T: Der junge Markgraf (4-16), S. 23
N: P0577
O: Lothringen
S: PINCK, Louis: Verklingende Weisen Bd 4, Kassel 1
R: geistliches, religises Lied, Hochzeitslied]
M: 6/8
L: 1/16
K: F
F2 | A,2C2F2A,2C2A2 | A3GA2G4
GG | C2E2BGA2A2G2 | F6z4
C2 | B2B2G2C2E2G2 | F2A2c2c2B2
AA | G2G2Bdc2c2B2 | A6z4

@@@ Tune index: 7865
